img/paper.svg

<svg width="120" height="120" viewBox="0 0 120 120" fill="none" xmlns="http://www.w3.org/2000/svg">
<g clip-path="url(#clip0)">
<path fill-rule="evenodd" clip-rule="evenodd" d="M96.4263 0.872338C96.1078 11.2445 97.6378 29.5729 97.1071 41.2701C96.9271 45.2013 96.1171 51.258 100.511 51.9369C100.603 52.4839 100.096 52.4301 100.285 53.0719C102.853 57.009 106.585 59.7824 109.589 63.2846C109.64 68.97 106.412 72.9289 105.957 79.1714C105.318 87.9559 105.65 96.7468 101.646 102.32C101.496 107.761 101.909 115.1 101.872 119.796C99.7286 117.853 99.5463 112.481 99.604 108.675C99.6409 106.123 98.4616 103.257 98.9232 101.187C99.2116 99.8806 100.619 99.1214 101.192 98.0091C102.553 95.3668 103.972 90.3799 103.689 86.661C103.647 86.121 103.243 85.263 103.234 84.6183C103.183 80.7706 104.937 76.2136 105.957 72.1357C106.691 69.2013 106.799 66.4853 108.68 64.6463C106.222 63.3861 105.724 59.5124 102.553 59.6534C100.984 57.1387 99.4678 54.5689 97.3332 52.6177C95.1386 56.0013 99.7355 59.9444 98.014 64.4195C99.3547 64.7107 100.172 61.4973 102.099 62.3767C101.083 63.8573 100.144 65.4148 98.4686 66.2352C97.8455 70.5185 101.519 73.7742 101.872 77.356C101.965 78.282 101.404 79.1347 101.418 80.0795C101.443 81.7094 103.059 83.5175 101.646 84.8453C99.6732 83.785 98.914 78.7648 100.285 77.1289C100.236 75.0282 98.0232 73.863 97.3332 71.682C96.1632 67.9851 96.7332 63.2968 96.1978 59.4266C96.3663 58.6535 95.3624 59.0525 95.2909 58.5187C95.3532 57.1676 95.8863 56.884 95.5171 55.5681C94.7302 55.7504 94.6447 55.2303 93.9294 55.3415C93.2417 55.9401 93.5371 57.5223 93.4748 58.7456C94.0055 59.4725 95.0301 58.2967 95.2909 59.1995C95.3163 60.435 94.0609 60.3898 92.794 60.3342C92.1294 60.0148 91.9678 59.1937 91.887 58.2917C91.557 63.375 92.2263 69.2707 90.9778 74.8593C89.877 76.1996 88.587 78.1791 88.2547 80.9871C87.8993 83.9989 89.667 88.1539 87.574 90.2922C86.4501 89.5999 86.6325 87.6035 85.7578 86.661C84.4655 86.9931 83.764 86.7076 82.354 86.661C82.6978 88.9826 85.5455 90.9083 84.3963 93.2437C81.597 92.563 81.8324 88.8464 80.7663 86.4339C78.7955 86.313 76.3816 86.0253 74.637 85.7532C72.507 85.4202 69.5002 86.3144 68.5102 84.6183C73.7394 83.7944 79.6263 83.6296 85.7578 83.7106C86.3025 79.9851 87.8855 77.4201 88.2547 72.8167C88.467 70.1855 89.9809 67.3595 90.0709 65.1005C90.1101 64.1216 89.6071 63.1482 89.6163 62.1499C89.6486 58.804 90.574 55.8044 92.5678 53.5256C92.9348 53.0615 94.2409 53.5362 94.6101 53.0719C93.9386 37.6413 93.4124 19.245 94.8363 4.04979C86.7455 4.24456 69.3732 8.04117 62.6094 3.14194C64.2109 2.18725 66.3663 3.08749 68.9648 2.9151C70.6678 2.8018 72.4609 2.91995 74.1847 2.68803C81.6686 1.68049 89.4478 -1.52859 96.4263 0.872338Z" fill="#E69927"/>
<path fill-rule="evenodd" clip-rule="evenodd" d="M59.414 4.50339C56.5386 7.3888 49.867 4.69125 45.5701 4.73025C41.1509 7.45412 32.0286 5.18903 27.1871 5.41127C27.0994 12.7816 27.3186 21.4935 26.0516 28.3344C24.1663 25.6948 24.9301 21.1056 24.6901 16.7593C24.434 12.1161 23.5455 7.49289 23.5548 3.82237C29.8178 1.6669 39.1109 2.18407 46.7055 2.00684C50.0009 4.28369 58.1609 0.346619 59.414 4.50339Z" fill="#E69927"/>
<path fill-rule="evenodd" clip-rule="evenodd" d="M46.2617 14.948C48.1033 13.5851 50.9417 14.1535 53.524 14.04C57.8371 13.8505 61.6956 13.4169 65.7802 13.3592C69.1402 13.3119 79.7348 13.0172 79.8502 14.948C79.984 17.1955 74.3971 16.5366 71.9071 16.5366C62.8033 16.5366 53.5979 16.3601 46.2617 14.948Z" fill="#E69927"/>
<path fill-rule="evenodd" clip-rule="evenodd" d="M42.1842 14.2659C41.2542 16.3366 37.2296 14.6785 34.9219 14.7198C35.7457 13.1229 40.8411 13.2048 42.1842 14.2659Z" fill="#E69927"/>
<path fill-rule="evenodd" clip-rule="evenodd" d="M85.7509 14.7141C85.4993 16.2695 81.2416 15.7525 80.3047 15.168C81.147 14.0677 84.8716 13.7054 85.7509 14.7141Z" fill="#E69927"/>
<path fill-rule="evenodd" clip-rule="evenodd" d="M48.3086 21.9737C49.8986 20.7246 52.6632 20.7234 55.1186 20.612C61.0194 20.3441 67.9978 20.662 73.954 20.3851C75.3524 20.32 85.5294 19.0723 85.5294 21.5198C85.5294 23.5109 82.6447 22.8117 80.9901 22.8816C71.0901 23.2988 58.054 23.1283 48.3086 21.9737Z" fill="#E69927"/>
<path fill-rule="evenodd" clip-rule="evenodd" d="M43.9723 21.5262C42.2161 23.0901 38.2631 21.4708 35.8008 21.5262C36.7885 19.8797 43.0238 19.755 43.9723 21.5262Z" fill="#E69927"/>
<path fill-rule="evenodd" clip-rule="evenodd" d="M79.3997 29.2393C67.7758 31.0266 53.6482 29.129 40.8174 29.6932C39.4835 29.7518 34.3605 30.8643 34.0074 28.7853C33.622 26.5042 38.1773 26.9782 40.1366 26.7428C50.9689 25.4408 64.9905 27.5327 75.3128 28.1043C76.6328 28.1775 78.6774 27.8443 79.3997 29.2393Z" fill="#E69927"/>
<path fill-rule="evenodd" clip-rule="evenodd" d="M84.8521 29.0164C84.1829 29.9903 81.6837 29.0605 80.5391 29.0164C80.6175 27.1576 84.2637 28.0592 84.8521 29.0164Z" fill="#E69927"/>
<path fill-rule="evenodd" clip-rule="evenodd" d="M25.8372 30.6006C27.1225 30.9211 26.3334 32.5483 27.8794 32.1892C26.4972 39.0516 29.6655 46.3762 28.7863 52.8421C28.6848 53.6009 28.8602 54.008 28.1056 54.4305C30.427 56.2492 29.654 59.9669 29.6955 63.5088C29.7186 65.489 30.9324 67.7544 31.2832 70.0903C31.4931 71.4756 31.2947 72.9075 31.5116 74.1756C32.0862 77.5564 33.8146 80.8931 33.0992 84.1617C42.888 84.7121 56.256 83.102 65.3249 85.0693C64.0788 86.3057 61.4481 85.661 59.8789 85.7503C53.5699 86.1089 47.1363 87.7541 39.9066 87.1121C35.0861 95.6062 40.3128 107.396 38.0929 119.112C36.5629 118.499 37.3522 117.375 37.1837 116.163C36.9229 114.294 36.5606 111.825 36.2768 109.353C35.8799 105.915 34.8922 102.94 36.0483 100.955C36.2422 97.8954 34.4192 95.98 34.9153 93.467C35.3376 91.3231 37.9914 89.8739 37.8644 87.3391C36.8468 87.2337 34.0638 87.3161 32.6446 87.566C31.0385 88.4558 31.4447 91.3601 29.2409 91.6508C29.234 91.4293 28.964 91.4754 28.7863 91.4247C27.8587 89.2111 30.224 86.4696 30.6024 83.4809C30.9901 80.4225 30.1685 77.7216 30.1478 75.0834C29.7878 74.5367 29.0863 74.3314 28.7863 73.7217C28.9202 69.8567 27.2772 66.1047 27.6533 62.6009C27.8656 60.6103 29.1809 59.024 28.1056 57.154C27.7064 57.8131 27.6649 58.8315 26.9726 59.1966C25.5788 59.3023 24.4157 59.1816 24.4757 57.8348C25.0296 57.2766 25.4587 58.0028 26.2918 57.8348C26.4026 56.0597 26.3564 54.44 24.7019 54.4305C23.7119 54.8115 24.5519 56.2889 24.4757 57.154C24.6442 57.9274 23.6381 57.5281 23.5666 58.0619C23.5066 64.2221 23.0427 71.4913 19.4821 75.3105C19.3575 77.0868 20.359 79.5594 19.0298 80.5303C18.1667 79.607 17.8275 77.4387 17.8945 76.4452C18.1275 72.9638 21.792 69.6844 21.2982 65.3244C19.999 64.0515 18.626 62.8531 17.666 61.2391C19.5998 60.4824 20.2182 62.8938 21.5243 63.5088C20.5713 59.093 23.8527 55.4413 22.8858 51.2533C21.5381 52.3252 20.412 53.6203 18.5752 54.2037C19.1475 50.9856 22.3966 48.5014 24.7019 46.2604C25.6272 41.2457 24.8126 35.6773 25.8372 30.6006Z" fill="#E69927"/>
<path fill-rule="evenodd" clip-rule="evenodd" d="M86.663 35.8178C85.9154 37.2498 84.0163 36.6493 82.5788 36.7259C80.0936 36.8577 77.6177 36.7328 75.0887 36.7259C64.6635 36.6957 53.036 38.4445 43.7715 36.0447C44.503 34.7639 46.2705 35.4241 47.4035 35.3641C56.698 34.8701 67.1071 33.8858 76.6785 34.0021C77.9869 34.0183 79.5467 34.268 80.9889 34.2292C83.0771 34.1729 86.3561 33.0447 86.663 35.8178Z" fill="#E69927"/>
<path fill-rule="evenodd" clip-rule="evenodd" d="M41.7211 35.6023V36.7372C38.9311 37.0328 35.0449 37.1221 32.8711 36.5101C34.4496 35.0754 39.3234 34.7286 41.7211 35.6023Z" fill="#E69927"/>
<path fill-rule="evenodd" clip-rule="evenodd" d="M40.5762 42.6365C41.0123 41.3668 42.6946 42.0642 43.7538 41.9557C53.2246 40.9858 66.9738 40.5822 77.5707 41.0479C80.13 41.1605 84.623 40.4781 85.0592 41.9557C85.9084 44.8253 76.7169 43.7712 74.8477 43.7712C63.6553 43.7712 50.4946 43.7539 40.5762 42.6365Z" fill="#E69927"/>
<path fill-rule="evenodd" clip-rule="evenodd" d="M39.0006 42.1732C38.7421 43.6409 35.0313 42.9267 34.6875 41.7191C35.7952 41.3595 38.4859 41.201 39.0006 42.1732Z" fill="#E69927"/>
<path fill-rule="evenodd" clip-rule="evenodd" d="M72.5669 49.4374C70.8223 50.6598 68.1315 50.867 65.7592 51.0263C57.5139 51.579 47.2815 50.4588 39.2046 50.7994C37.5823 50.8675 35.8792 51.7301 34.6654 50.1182C34.5269 48.2342 36.4193 48.4726 37.6169 48.3025C46.0769 47.1016 56.3462 48.7396 64.6239 49.2106C67.6723 49.3839 70.2315 48.741 72.5669 49.4374Z" fill="#E69927"/>
<path fill-rule="evenodd" clip-rule="evenodd" d="M84.1613 49.2076C82.7559 50.3527 77.1852 50.2648 75.7637 49.2076C76.8091 47.0386 82.2529 48.6429 84.1613 49.2076Z" fill="#E69927"/>
<path fill-rule="evenodd" clip-rule="evenodd" d="M62.6055 57.3912C64.4032 56.2083 67.3616 56.7141 70.0939 56.4833C72.7247 56.2611 75.3739 55.756 77.5847 55.5753C79.4608 55.422 86.3355 55.1315 86.6632 56.9373C87.2032 59.9204 77.1901 58.6833 73.7262 58.5259C69.4985 58.3339 65.7647 58.7225 62.6055 57.3912Z" fill="#E69927"/>
<path fill-rule="evenodd" clip-rule="evenodd" d="M46.0234 57.616C46.9281 56.2177 50.8765 56.6144 53.7403 56.4813C55.9557 56.3781 60.3865 55.5889 60.548 57.3891C60.735 59.4734 56.2488 58.8233 54.6473 58.7506C51.5712 58.611 48.2965 58.1668 46.0234 57.616Z" fill="#E69927"/>
<path fill-rule="evenodd" clip-rule="evenodd" d="M43.7495 57.617C42.7341 58.6559 39.9903 58.3951 37.8487 58.2977C36.5495 58.2387 34.5672 58.3598 34.2188 57.3901C34.9964 56.3452 38.0264 56.7947 40.3456 56.7091C41.9679 56.6493 43.8464 55.9517 43.7495 57.617Z" fill="#E69927"/>
<path fill-rule="evenodd" clip-rule="evenodd" d="M16.2967 56.9247C15.2674 59.7533 13.0175 61.3601 11.3052 63.5063C13.1559 66.6039 14.0721 70.7727 15.1636 75.308C16.0336 78.9281 16.359 82.0578 16.0705 85.2939C15.7544 88.8553 17.2867 94.0599 18.7936 96.8684C19.2667 97.7499 20.5659 98.7329 20.8359 99.8199C21.3344 101.825 20.169 104.837 20.1552 107.308C20.1413 109.902 19.9798 111.968 19.4744 114.571C19.1974 115.999 19.5067 118.21 17.8867 118.655C17.0167 113.652 19.4167 107.509 18.1129 101.408C17.8775 100.304 16.749 99.3583 16.2967 98.2299C14.2197 93.0537 14.2936 85.3661 13.8021 78.0313C13.6475 75.7497 13.3013 73.3123 12.6667 71.4496C11.9928 69.4749 10.6613 67.91 10.3959 66.0027C10.2598 65.0213 10.2321 62.4791 10.3959 61.9176C10.6221 61.1478 14.9628 56.8532 16.2967 56.9247Z" fill="#E69927"/>
<path fill-rule="evenodd" clip-rule="evenodd" d="M83.0253 63.7453C81.1237 65.4041 77.8283 65.2033 74.856 65.3339C63.066 65.8522 51.0706 65.5504 39.4514 66.0147C37.9976 66.0726 35.346 66.6262 35.1383 65.1071C34.896 63.3158 38.5976 63.3043 38.7707 63.2911C40.5014 63.1612 42.6845 63.5138 43.7622 63.5182C56.5006 63.5692 70.4991 62.3893 83.0253 63.7453Z" fill="#E69927"/>
<path fill-rule="evenodd" clip-rule="evenodd" d="M82.1273 70.997C81.435 72.3339 77.0804 72.6505 75.998 71.4507C76.6165 70.0017 80.3296 70.9052 82.1273 70.997Z" fill="#E69927"/>
<path fill-rule="evenodd" clip-rule="evenodd" d="M73.0304 71.4599C72.0842 72.9117 69.8965 72.4135 68.265 72.5949C63.2273 73.1542 56.4289 74.3279 51.2435 73.9566C49.3973 73.8244 47.1588 73.7044 46.0234 72.368C46.3788 69.6412 49.9465 71.2197 52.8311 71.2331C59.0134 71.2622 67.8727 70.4212 73.0304 71.4599Z" fill="#E69927"/>
<path fill-rule="evenodd" clip-rule="evenodd" d="M44.0006 72.3617C42.9483 73.733 37.6429 73.8576 36.7383 72.5886C37.4121 70.9464 43.2737 70.424 44.0006 72.3617Z" fill="#E69927"/>
<path fill-rule="evenodd" clip-rule="evenodd" d="M81.1903 78.4959C79.8611 80.0229 76.2195 79.6738 73.4757 79.8577C71.7195 79.9754 69.7442 80.5791 68.708 79.4038C68.5742 78.5873 68.7911 78.1237 69.3888 78.042C72.7672 77.8546 77.8418 77.9017 81.1903 78.4959Z" fill="#E69927"/>
<path fill-rule="evenodd" clip-rule="evenodd" d="M64.8502 79.1706C64.5086 80.3574 62.7086 80.1811 61.6748 80.3055C56.1363 80.9708 49.1209 81.1439 42.3825 81.4402C40.5155 81.5223 37.1971 82.2539 37.3909 80.0786C37.5617 78.1323 40.7971 78.9463 42.1563 78.9437C48.2048 78.9326 57.9132 78.2876 64.8502 79.1706Z" fill="#E69927"/>
<path fill-rule="evenodd" clip-rule="evenodd" d="M83.2602 94.3799C85.0533 95.0076 85.6717 96.8099 87.1163 97.7837C86.0548 99.3345 89.5509 102.058 88.0256 104.594C86.3433 104.612 86.5994 102.692 86.4356 101.19C86.1656 104.005 86.4356 108.238 86.4356 112.082C86.4379 114.309 86.9456 116.822 85.5287 117.983C82.9002 117.838 83.0271 114.847 83.2602 111.401C83.5325 107.331 85.2563 101.615 84.8479 98.4645C84.6332 96.8145 82.9071 96.1083 83.2602 94.3799Z" fill="#E69927"/>
</g>
<defs>
<clipPath id="clip0">
<rect width="120" height="120" fill="white"/>
</clipPath>
</defs>
</svg>

<svg xmlns="http://www.w3.org/2000/svg" width="120" height="120" fill="none" viewBox="0 0 120 120"><g fill="#E69927" fill-rule="evenodd" clip-path="url(#a)" clip-rule="evenodd"><path d="M96.426.872c-.318 10.373 1.212 28.7.681 40.398-.18 3.931-.99 9.988 3.404 10.667.092.547-.415.493-.226 1.135 2.568 3.937 6.3 6.71 9.304 10.213.051 5.685-3.177 9.644-3.632 15.886-.639 8.785-.307 17.576-4.311 23.149-.15 5.441.263 12.78.226 17.476-2.143-1.943-2.326-7.315-2.268-11.121.037-2.552-1.142-5.418-.68-7.488.288-1.306 1.695-2.066 2.268-3.178 1.361-2.642 2.78-7.63 2.497-11.348-.042-.54-.446-1.398-.455-2.043-.051-3.847 1.703-8.404 2.723-12.482.734-2.935.842-5.65 2.723-7.49-2.458-1.26-2.956-5.134-6.127-4.993-1.569-2.514-3.085-5.084-5.22-7.035-2.194 3.383 2.403 7.326.681 11.801 1.34.292 2.158-2.922 4.085-2.042-1.016 1.48-1.955 3.038-3.63 3.858-.623 4.284 3.05 7.54 3.403 11.121.093.926-.468 1.779-.454 2.724.025 1.63 1.641 3.438.228 4.765-1.973-1.06-2.732-6.08-1.361-7.716-.049-2.1-2.262-3.266-2.952-5.447-1.17-3.697-.6-8.385-1.135-12.255.168-.773-.836-.374-.907-.908.062-1.351.595-1.635.226-2.95-.787.181-.872-.339-1.588-.227-.687.598-.392 2.18-.454 3.404.53.726 1.555-.45 1.816.453.025 1.236-1.23 1.19-2.497 1.135-.665-.32-.826-1.14-.907-2.042-.33 5.083.34 10.979-.91 16.567-1.1 1.34-2.39 3.32-2.722 6.128-.356 3.012 1.412 7.167-.681 9.305-1.124-.692-.942-2.689-1.816-3.631-1.292.332-1.994.047-3.404 0 .344 2.322 3.192 4.247 2.042 6.583-2.799-.681-2.564-4.398-3.63-6.81-1.97-.121-4.384-.409-6.129-.68-2.13-.334-5.137.56-6.127-1.136 5.23-.824 11.116-.988 17.248-.907.544-3.726 2.127-6.29 2.497-10.894.212-2.631 1.726-5.457 1.816-7.716.04-.98-.464-1.953-.455-2.951.033-3.346.958-6.346 2.952-8.624.367-.465 1.673.01 2.042-.454-.671-15.43-1.198-33.827.226-49.022-8.09.195-25.463 3.991-32.227-.908 1.602-.955 3.757-.055 6.356-.227 1.703-.113 3.496.005 5.22-.227C81.669 1.68 89.448-1.529 96.426.872M59.414 4.503c-2.875 2.886-9.547.188-13.844.227-4.42 2.724-13.541.459-18.383.681-.088 7.37.132 16.083-1.135 22.923-1.886-2.64-1.122-7.228-1.362-11.575-.256-4.643-1.145-9.266-1.135-12.937 6.263-2.155 15.556-1.638 23.15-1.815 3.296 2.277 11.456-1.66 12.709 2.496"/><path d="M46.262 14.948c1.841-1.363 4.68-.795 7.262-.908 4.313-.19 8.172-.623 12.256-.68 3.36-.048 13.955-.343 14.07 1.588.134 2.247-5.453 1.589-7.943 1.589-9.104 0-18.31-.177-25.645-1.589m-4.078-.682c-.93 2.07-4.954.412-7.262.454.824-1.597 5.92-1.515 7.262-.454m43.566.448c-.25 1.556-4.508 1.038-5.445.454.842-1.1 4.567-1.463 5.446-.454m-37.442 7.26c1.59-1.25 4.354-1.25 6.81-1.362 5.9-.268 12.879.05 18.835-.227 1.398-.065 11.575-1.313 11.575 1.135 0 1.99-2.884 1.292-4.539 1.362-9.9.417-22.936.246-32.681-.908m-4.337-.448c-1.756 1.564-5.709-.055-8.171 0 .987-1.646 7.223-1.771 8.171 0M79.4 29.24c-11.624 1.787-25.752-.111-38.583.453-1.334.059-6.456 1.171-6.81-.908-.385-2.28 4.17-1.807 6.13-2.042 10.832-1.302 24.853.79 35.176 1.361 1.32.073 3.364-.26 4.087 1.135m5.452-.223c-.67.974-3.168.045-4.313 0 .079-1.858 3.725-.957 4.313 0M25.837 30.6c1.285.321.496 1.948 2.042 1.59-1.382 6.862 1.787 14.186.907 20.652-.101.759.074 1.166-.68 1.589 2.321 1.818 1.548 5.536 1.59 9.078.023 1.98 1.236 4.245 1.587 6.581.21 1.386.012 2.817.229 4.086.574 3.38 2.303 6.717 1.587 9.986 9.789.55 23.157-1.06 32.226.907-1.246 1.237-3.877.592-5.446.681-6.31.359-12.743 2.004-19.972 1.362-4.82 8.494.406 20.284-1.814 32-1.53-.613-.74-1.737-.91-2.949-.26-1.869-.622-4.338-.906-6.81-.397-3.438-1.385-6.413-.229-8.398.194-3.06-1.629-4.975-1.133-7.488.423-2.144 3.076-3.593 2.95-6.128-1.018-.105-3.801-.023-5.22.227-1.607.89-1.2 3.794-3.404 4.085-.007-.222-.277-.176-.455-.226-.927-2.214 1.438-4.955 1.816-7.944.388-3.058-.433-5.76-.454-8.398-.36-.546-1.062-.752-1.362-1.361.134-3.865-1.509-7.617-1.133-11.121.213-1.99 1.528-3.577.453-5.447-.4.66-.441 1.677-1.133 2.043-1.394.105-2.557-.015-2.497-1.362.554-.558.983.168 1.816 0 .11-1.775.064-3.395-1.59-3.404-.99.38-.15 1.858-.226 2.723.168.773-.838.374-.91.908-.06 6.16-.523 13.43-4.084 17.249-.124 1.776.877 4.248-.452 5.22-.863-.924-1.203-3.092-1.136-4.086.234-3.481 3.898-6.76 3.404-11.12-1.299-1.273-2.672-2.472-3.632-4.086 1.934-.757 2.552 1.655 3.858 2.27-.953-4.416 2.329-8.068 1.362-12.256-1.348 1.072-2.474 2.367-4.31 2.95.572-3.217 3.82-5.702 6.126-7.943.925-5.014.11-10.583 1.135-15.66m60.826 5.218c-.748 1.432-2.647.831-4.084.908-2.485.132-4.961.007-7.49 0-10.425-.03-22.053 1.718-31.317-.681.731-1.281 2.499-.62 3.632-.68 9.294-.495 19.703-1.48 29.274-1.363 1.309.016 2.869.266 4.31.227 2.09-.056 5.368-1.184 5.675 1.589m-44.942-.216v1.135c-2.79.296-6.676.385-8.85-.227 1.579-1.435 6.452-1.781 8.85-.908m-1.145 7.035c.436-1.27 2.119-.573 3.178-.681 9.47-.97 23.22-1.374 33.817-.908 2.559.112 7.052-.57 7.488.908.85 2.87-8.342 1.815-10.211 1.815-11.193 0-24.353-.017-34.272-1.135"/><path d="M39 42.173c-.258 1.468-3.969.754-4.312-.454 1.107-.36 3.798-.518 4.313.454m33.566 7.264c-1.745 1.223-4.435 1.43-6.808 1.59-8.245.552-18.477-.568-26.554-.228-1.623.069-3.326.931-4.54-.68-.138-1.885 1.754-1.646 2.952-1.816 8.46-1.201 18.73.437 27.007.908 3.048.173 5.608-.47 7.943.226m11.594-.229c-1.405 1.145-6.976 1.057-8.397 0 1.045-2.17 6.489-.565 8.397 0m-21.555 8.183c1.797-1.183 4.756-.677 7.488-.908 2.63-.222 5.28-.727 7.49-.908 1.877-.153 8.751-.444 9.08 1.362.54 2.983-9.474 1.746-12.938 1.589-4.227-.192-7.961.196-11.12-1.135m-16.583.225c.905-1.398 4.853-1.002 7.717-1.135 2.216-.103 6.646-.892 6.808.908.187 2.084-4.3 1.434-5.9 1.362-3.077-.14-6.352-.584-8.625-1.135m-2.273.001c-1.016 1.039-3.76.778-5.901.68-1.3-.058-3.282.063-3.63-.907.777-1.045 3.807-.595 6.127-.68 1.622-.06 3.5-.758 3.404.907m-27.453-.692c-1.03 2.828-3.28 4.435-4.992 6.581 1.85 3.098 2.767 7.267 3.859 11.802.87 3.62 1.195 6.75.906 9.986-.316 3.561 1.217 8.766 2.724 11.574.473.882 1.772 1.865 2.042 2.952.498 2.005-.667 5.017-.68 7.488-.015 2.594-.176 4.66-.682 7.263-.277 1.428.033 3.639-1.587 4.084-.87-5.003 1.53-11.146.226-17.247-.235-1.104-1.364-2.05-1.816-3.178-2.077-5.176-2.003-12.864-2.495-20.199-.154-2.281-.5-4.719-1.135-6.581-.674-1.975-2.006-3.54-2.271-5.447-.136-.982-.164-3.524 0-4.085.226-.77 4.567-5.065 5.9-4.993m66.729 6.82c-1.901 1.66-5.197 1.458-8.169 1.589-11.79.518-23.785.216-35.405.68-1.453.059-4.105.612-4.313-.907-.242-1.791 3.46-1.803 3.633-1.816 1.73-.13 3.913.223 4.991.227 12.739.051 26.737-1.129 39.263.227m-.898 7.252c-.692 1.337-5.047 1.653-6.129.454.618-1.45 4.332-.546 6.13-.454m-9.098.463c-.946 1.452-3.133.954-4.765 1.135-5.038.56-11.836 1.733-17.022 1.362-1.846-.133-4.084-.253-5.22-1.589.356-2.727 3.923-1.148 6.808-1.135 6.182.03 15.042-.812 20.2.227M44 72.362c-1.052 1.371-6.357 1.496-7.262.227.674-1.643 6.536-2.165 7.263-.227m37.189 6.134c-1.329 1.527-4.97 1.178-7.714 1.362-1.757.117-3.732.721-4.768-.454-.134-.817.083-1.28.68-1.362 3.38-.187 8.454-.14 11.802.454m-16.34.674c-.341 1.187-2.141 1.011-3.175 1.135-5.539.666-12.554.839-19.292 1.135-1.867.082-5.186.814-4.992-1.361.17-1.947 3.406-1.133 4.765-1.135 6.049-.011 15.757-.656 22.694.227M83.26 94.38c1.793.628 2.412 2.43 3.856 3.404-1.061 1.55 2.435 4.274.91 6.81-1.683.018-1.427-1.902-1.59-3.404-.27 2.815 0 7.048 0 10.892.002 2.227.51 4.74-.907 5.901-2.629-.145-2.502-3.136-2.269-6.582.272-4.07 1.996-9.786 1.588-12.936-.215-1.65-1.94-2.357-1.588-4.085"/></g><defs><clipPath id="a"><path fill="#fff" d="M0 0h120v120H0z"/></clipPath></defs></svg>
